packages/core/src/svgs/srx.svg

<svg width="24" height="24" viewBox="0 0 24 24" fill="none" xmlns="http://www.w3.org/2000/svg">
<g clip-path="url(#clip0_31_19274)">
<path d="M0 0H24V24H0V0Z" fill="#F0F3FA"/>
<path d="M8.57139 10.0715V6.21436L5.14282 8.14293L8.57139 10.0715Z" fill="#A62222"/>
<path d="M8.57139 13.9284V10.0713L5.14282 11.9999L8.57139 13.9284Z" fill="#EE8622"/>
<path d="M8.57139 17.7859V13.9287L5.14282 15.8573L8.57139 17.7859Z" fill="#A62222"/>
<path d="M18.8571 15.857V11.9999L15.4286 13.9284L18.8571 15.857ZM15.4286 13.9284V10.0713L12 11.9999L15.4286 13.9284ZM15.4286 17.7856V13.9284L12 15.857L15.4286 17.7856Z" fill="#E23C25"/>
<path d="M12.0001 19.7141V15.8569L8.57153 17.7855L12.0001 19.7141Z" fill="#EE8622"/>
<path d="M18.857 12.0002V8.14307L15.4285 10.0716L18.857 12.0002Z" fill="#FAC211"/>
<path d="M12.0001 8.14279V4.28564L8.57153 6.21422L12.0001 8.14279Z" fill="#EE8622"/>
<path d="M8.57153 10.0715V6.21436L12.0001 8.14293L8.57153 10.0715Z" fill="#E23C25"/>
<path d="M8.57153 13.9284V10.0713L12.0001 11.9999L8.57153 13.9284ZM12.0001 19.7141V15.857L15.4287 17.7856L12.0001 19.7141Z" fill="#FAC211"/>
<path d="M5.14282 12.0002V8.14307L8.57139 10.0716L5.14282 12.0002ZM5.14282 15.8574V12.0002L8.57139 13.9288L5.14282 15.8574Z" fill="#E23C25"/>
<path d="M12 8.14279V4.28564L15.4286 6.21422L12 8.14279Z" fill="#FAC211"/>
<path d="M15.4285 10.0715V6.21436L18.857 8.14293L15.4285 10.0715ZM15.4285 13.9286V10.0715L18.857 12.0001L15.4285 13.9286Z" fill="#EE8622"/>
<path d="M15.4285 17.7859V13.9287L18.857 15.8573L15.4285 17.7859Z" fill="#A62222"/>
</g>
<defs>
<clipPath id="clip0_31_19274">
<rect width="24" height="24" fill="white"/>
</clipPath>
</defs>
</svg>

<svg xmlns="http://www.w3.org/2000/svg" width="24" height="24" fill="none" viewBox="0 0 24 24"><g clip-path="url(#a)"><path fill="#F0F3FA" d="M0 0h24v24H0z"/><path fill="#A62222" d="M8.571 10.072V6.214L5.143 8.143z"/><path fill="#EE8622" d="M8.571 13.928v-3.857L5.143 12z"/><path fill="#A62222" d="M8.571 17.786v-3.857l-3.428 1.928z"/><path fill="#E23C25" d="M18.857 15.857V12l-3.428 1.928zm-3.428-1.929v-3.857L12 12zm0 3.858v-3.858L12 15.857z"/><path fill="#EE8622" d="M12 19.714v-3.857l-3.428 1.928z"/><path fill="#FAC211" d="M18.857 12V8.143l-3.428 1.929z"/><path fill="#EE8622" d="M12 8.143V4.286L8.572 6.214z"/><path fill="#E23C25" d="M8.572 10.072V6.214L12 8.143z"/><path fill="#FAC211" d="M8.572 13.928v-3.857L12 12zM12 19.714v-3.857l3.429 1.929z"/><path fill="#E23C25" d="M5.143 12V8.143l3.428 1.929zm0 3.857V12L8.57 13.93z"/><path fill="#FAC211" d="M12 8.143V4.286l3.429 1.928z"/><path fill="#EE8622" d="M15.429 10.072V6.214l3.428 1.929zm0 3.857v-3.857L18.857 12z"/><path fill="#A62222" d="M15.429 17.786v-3.857l3.428 1.928z"/></g><defs><clipPath id="a"><path fill="#fff" d="M0 0h24v24H0z"/></clipPath></defs></svg>
